overrides/.icons/wp/prop-mounted.svg

<?xml version="1.0" encoding="UTF-8" standalone="no"?>
<svg
   viewBox="0 0 24 24"
   version="1.1"
   id="svg1"
   sodipodi:docname="prop-mounted.svg"
   xml:space="preserve"
   inkscape:version="1.3.2 (091e20e, 2023-11-25, custom)"
   xmlns:inkscape="http://www.inkscape.org/namespaces/inkscape"
   xmlns:sodipodi="http://sodipodi.sourceforge.net/DTD/sodipodi-0.dtd"
   xmlns="http://www.w3.org/2000/svg"
   xmlns:svg="http://www.w3.org/2000/svg"><defs
     id="defs1"><inkscape:path-effect
       effect="fillet_chamfer"
       id="path-effect16"
       is_visible="true"
       lpeversion="1"
       nodesatellites_param="F,0,1,1,0,1.4522319,0,1 @ F,0,1,1,0,1.4522319,0,1 @ F,0,0,1,0,1.4522319,0,1"
       radius="0"
       unit="px"
       method="auto"
       mode="F"
       chamfer_steps="1"
       flexible="false"
       use_knot_distance="true"
       apply_no_radius="true"
       apply_with_radius="true"
       only_selected="false"
       hide_knots="false" /><inkscape:path-effect
       effect="fillet_chamfer"
       id="path-effect1"
       is_visible="true"
       lpeversion="1"
       nodesatellites_param="F,0,0,1,0,0,0,1 @ F,0,0,1,0,0,0,1 @ F,0,0,1,0,0,0,1"
       radius="0"
       unit="px"
       method="auto"
       mode="F"
       chamfer_steps="1"
       flexible="false"
       use_knot_distance="true"
       apply_no_radius="true"
       apply_with_radius="true"
       only_selected="false"
       hide_knots="false" /><linearGradient
       id="swatch1"
       inkscape:swatch="solid"><stop
         style="stop-color:#ef5552;stop-opacity:1;"
         offset="0"
         id="stop1" /></linearGradient><inkscape:path-effect
       effect="fillet_chamfer"
       id="path-effect15"
       is_visible="true"
       lpeversion="1"
       nodesatellites_param="F,0,0,1,0,0.48222331,0,1 @ F,0,1,1,0,0.48222331,0,1 @ F,0,1,1,0,0.48222331,0,1"
       radius="0"
       unit="px"
       method="auto"
       mode="F"
       chamfer_steps="1"
       flexible="false"
       use_knot_distance="true"
       apply_no_radius="true"
       apply_with_radius="true"
       only_selected="false"
       hide_knots="false" /><inkscape:path-effect
       effect="fillet_chamfer"
       id="path-effect14"
       is_visible="true"
       lpeversion="1"
       nodesatellites_param="F,0,0,1,0,0,0,1 @ F,0,0,1,0,0,0,1 @ F,0,0,1,0,0,0,1"
       radius="0"
       unit="px"
       method="auto"
       mode="F"
       chamfer_steps="1"
       flexible="false"
       use_knot_distance="true"
       apply_no_radius="true"
       apply_with_radius="true"
       only_selected="false"
       hide_knots="false" /><inkscape:path-effect
       effect="fillet_chamfer"
       id="path-effect13"
       is_visible="true"
       lpeversion="1"
       nodesatellites_param="F,0,1,1,0,1.0728753,0,1 @ F,0,1,1,0,1.0728753,0,1 @ F,0,1,1,0,1.0728753,0,1 @ F,0,1,1,0,1.0728753,0,1 @ F,0,0,1,0,1.0728753,0,1 @ F,0,1,1,0,1.0728753,0,1"
       radius="0"
       unit="px"
       method="auto"
       mode="F"
       chamfer_steps="1"
       flexible="false"
       use_knot_distance="true"
       apply_no_radius="true"
       apply_with_radius="true"
       only_selected="false"
       hide_knots="false" /><inkscape:path-effect
       effect="fillet_chamfer"
       id="path-effect12"
       is_visible="true"
       lpeversion="1"
       nodesatellites_param="F,0,0,1,0,0,0,1 @ F,0,0,1,0,0,0,1 @ F,0,0,1,0,0,0,1 @ F,0,0,1,0,0,0,1 @ F,0,0,1,0,0,0,1 @ F,0,0,1,0,0,0,1"
       radius="0"
       unit="px"
       method="auto"
       mode="F"
       chamfer_steps="1"
       flexible="false"
       use_knot_distance="true"
       apply_no_radius="true"
       apply_with_radius="true"
       only_selected="false"
       hide_knots="false" /><inkscape:path-effect
       effect="fillet_chamfer"
       id="path-effect11"
       is_visible="true"
       lpeversion="1"
       nodesatellites_param="F,0,0,1,0,0,0,1 @ F,0,0,1,0,0,0,1 @ F,0,0,1,0,0,0,1 @ F,0,0,1,0,0,0,1 @ F,0,0,1,0,0,0,1 @ F,0,0,1,0,0,0,1"
       radius="0"
       unit="px"
       method="auto"
       mode="F"
       chamfer_steps="1"
       flexible="false"
       use_knot_distance="true"
       apply_no_radius="true"
       apply_with_radius="true"
       only_selected="false"
       hide_knots="false" /><inkscape:path-effect
       effect="fillet_chamfer"
       id="path-effect10"
       is_visible="true"
       lpeversion="1"
       nodesatellites_param="F,0,0,1,0,0,0,1 @ F,0,0,1,0,0,0,1 @ F,0,0,1,0,0,0,1 @ F,0,0,1,0,0,0,1 @ F,0,0,1,0,0,0,1 @ F,0,0,1,0,0,0,1"
       radius="0"
       unit="px"
       method="auto"
       mode="F"
       chamfer_steps="1"
       flexible="false"
       use_knot_distance="true"
       apply_no_radius="true"
       apply_with_radius="true"
       only_selected="false"
       hide_knots="false" /><inkscape:path-effect
       effect="fillet_chamfer"
       id="path-effect9"
       is_visible="true"
       lpeversion="1"
       nodesatellites_param="F,0,0,1,0,0,0,1 @ F,0,0,1,0,0,0,1 @ F,0,0,1,0,0,0,1 @ F,0,0,1,0,0,0,1 @ F,0,0,1,0,0,0,1 @ F,0,0,1,0,0,0,1"
       radius="0"
       unit="px"
       method="auto"
       mode="F"
       chamfer_steps="1"
       flexible="false"
       use_knot_distance="true"
       apply_no_radius="true"
       apply_with_radius="true"
       only_selected="false"
       hide_knots="false" /><inkscape:path-effect
       effect="fillet_chamfer"
       id="path-effect8"
       is_visible="true"
       lpeversion="1"
       nodesatellites_param="F,0,0,1,0,0,0,1 @ F,0,0,1,0,0,0,1 @ F,0,0,1,0,0,0,1 @ F,0,0,1,0,0,0,1 @ F,0,0,1,0,0,0,1 @ F,0,0,1,0,0,0,1"
       radius="0"
       unit="px"
       method="auto"
       mode="F"
       chamfer_steps="1"
       flexible="false"
       use_knot_distance="true"
       apply_no_radius="true"
       apply_with_radius="true"
       only_selected="false"
       hide_knots="false" /><inkscape:path-effect
       effect="fillet_chamfer"
       id="path-effect7"
       is_visible="true"
       lpeversion="1"
       nodesatellites_param="F,0,0,1,0,0,0,1 @ F,0,0,1,0,0,0,1 @ F,0,0,1,0,0,0,1 @ F,0,0,1,0,0,0,1 @ F,0,0,1,0,0,0,1 @ F,0,0,1,0,0,0,1"
       radius="0"
       unit="px"
       method="auto"
       mode="F"
       chamfer_steps="1"
       flexible="false"
       use_knot_distance="true"
       apply_no_radius="true"
       apply_with_radius="true"
       only_selected="false"
       hide_knots="false" /><inkscape:path-effect
       effect="fillet_chamfer"
       id="path-effect6"
       is_visible="true"
       lpeversion="1"
       nodesatellites_param="F,0,0,1,0,0,0,1 @ F,0,0,1,0,0,0,1 @ F,0,0,1,0,0,0,1 @ F,0,0,1,0,0,0,1 @ F,0,0,1,0,0,0,1 @ F,0,0,1,0,0,0,1"
       radius="0"
       unit="px"
       method="auto"
       mode="F"
       chamfer_steps="1"
       flexible="false"
       use_knot_distance="true"
       apply_no_radius="true"
       apply_with_radius="true"
       only_selected="false"
       hide_knots="false" /><inkscape:path-effect
       effect="fillet_chamfer"
       id="path-effect5"
       is_visible="true"
       lpeversion="1"
       nodesatellites_param="F,0,0,1,0,0,0,1 @ F,0,0,1,0,0,0,1 @ F,0,0,1,0,0,0,1 @ F,0,0,1,0,0,0,1 @ F,0,0,1,0,0,0,1 @ F,0,0,1,0,0,0,1"
       radius="0"
       unit="px"
       method="auto"
       mode="F"
       chamfer_steps="1"
       flexible="false"
       use_knot_distance="true"
       apply_no_radius="true"
       apply_with_radius="true"
       only_selected="false"
       hide_knots="false" /><inkscape:path-effect
       effect="fillet_chamfer"
       id="path-effect4"
       is_visible="true"
       lpeversion="1"
       nodesatellites_param="F,0,0,1,0,0,0,1 @ F,0,0,1,0,0,0,1 @ F,0,0,1,0,0,0,1 @ F,0,0,1,0,0,0,1 @ F,0,0,1,0,1.1276705,0,1 @ F,0,0,1,0,1.2418038,0,1"
       radius="0"
       unit="px"
       method="auto"
       mode="F"
       chamfer_steps="1"
       flexible="false"
       use_knot_distance="true"
       apply_no_radius="true"
       apply_with_radius="true"
       only_selected="false"
       hide_knots="false" /><inkscape:path-effect
       effect="fillet_chamfer"
       id="path-effect3"
       is_visible="true"
       lpeversion="1"
       nodesatellites_param="F,0,0,1,0,0,0,1 @ F,0,0,1,0,0,0,1 @ F,0,0,1,0,0,0,1 @ F,0,0,1,0,0,0,1 @ F,0,0,1,0,0,0,1 @ F,0,0,1,0,0,0,1"
       radius="0"
       unit="px"
       method="auto"
       mode="F"
       chamfer_steps="1"
       flexible="false"
       use_knot_distance="true"
       apply_no_radius="true"
       apply_with_radius="true"
       only_selected="false"
       hide_knots="false" /><inkscape:path-effect
       effect="fillet_chamfer"
       id="path-effect2"
       is_visible="true"
       lpeversion="1"
       nodesatellites_param="F,0,0,1,0,0,0,1 @ F,0,0,1,0,0,0,1 @ F,0,0,1,0,0,0,1 @ F,0,0,1,0,0,0,1 @ F,0,0,1,0,0,0,1 @ F,0,0,1,0,0,0,1"
       radius="0"
       unit="px"
       method="auto"
       mode="F"
       chamfer_steps="1"
       flexible="false"
       use_knot_distance="true"
       apply_no_radius="true"
       apply_with_radius="true"
       only_selected="false"
       hide_knots="false" /><radialGradient
       id="lorc-spiky-eclipse-gradient-0"><stop
         offset="0%"
         stop-color="#000"
         stop-opacity="1"
         id="stop1-8" /><stop
         offset="100%"
         stop-color="#000"
         stop-opacity="1"
         id="stop2" /></radialGradient></defs><sodipodi:namedview
     id="namedview1"
     pagecolor="#ffffff"
     bordercolor="#666666"
     borderopacity="1.0"
     inkscape:showpageshadow="true"
     inkscape:pageopacity="0.0"
     inkscape:pagecheckerboard="true"
     inkscape:deskcolor="#d1d1d1"
     inkscape:zoom="5.59375"
     inkscape:cx="-13.407821"
     inkscape:cy="5.273743"
     inkscape:window-width="1366"
     inkscape:window-height="697"
     inkscape:window-x="-8"
     inkscape:window-y="-8"
     inkscape:window-maximized="1"
     inkscape:current-layer="svg1"
     showgrid="true"><inkscape:grid
       id="grid1"
       units="px"
       originx="0"
       originy="0"
       spacingx="1"
       spacingy="1"
       empcolor="#3f3fff"
       empopacity="0.25098039"
       color="#3f3fff"
       opacity="0.1254902"
       empspacing="5"
       dotted="false"
       gridanglex="30"
       gridanglez="30"
       visible="true" /></sodipodi:namedview><path
     id="path6"
     d=""
     style="stroke-width:0.999998" /><path
     id="rect14"
     style="stroke-width:0.999991;paint-order:stroke markers fill"
     d="m 18.519182,1.5115573 c 0.102055,-0.00747 0.201692,0.022726 0.274041,0.095075 l 3.609132,3.6091317 c 0.144697,0.1446973 0.126565,0.3972815 -0.04101,0.5648593 L 21.5299,6.6120664 c -0.167579,0.1675787 -0.418298,0.1857087 -0.562996,0.041012 L 17.355908,3.0420829 C 17.211211,2.8973858 17.229342,2.6466666 17.396921,2.4790881 l 0.831443,-0.8295784 c 0.08379,-0.083789 0.188764,-0.1304745 0.290818,-0.1379524 z m -2.540933,1.3012264 c 0.101821,-0.00725 0.199827,0.024592 0.272176,0.09694 l 4.848839,4.848839 c 0.144697,0.1446973 0.128417,0.3954165 -0.03915,0.5629949 l -0.831442,0.8314426 c -0.167579,0.1675786 -0.420162,0.1857097 -0.564859,0.041013 l -4.84884,-4.84884 C 14.670278,4.2004761 14.68841,3.9478931 14.855987,3.7803144 L 15.68743,2.9488718 c 0.08378,-0.083789 0.188998,-0.128844 0.290819,-0.1360881 z M 13.74864,4.9976508 c 0.18957,-0.0059 0.378447,0.063394 0.521983,0.2069286 l 4.533785,4.5337857 a 0.70583467,0.70583467 0 0 1 0.175237,0.7102679 l -1.743047,6.213449 c -0.02014,0.141017 -0.08998,0.272674 -0.195743,0.378437 -0.105763,0.105763 -0.237419,0.175598 -0.378437,0.195743 l -6.21345,1.743047 c -0.24678,0.07555 -0.5188883,0.01614 -0.7102686,-0.175237 L 5.2049137,14.270286 C 5.0135343,14.078906 4.9541307,13.806798 5.029678,13.560019 L 6.7727248,7.3465694 C 6.7928692,7.2055522 6.8627045,7.0738954 6.9684683,6.9681325 7.0742311,6.8623695 7.2058874,6.7925346 7.3469049,6.7723893 L 13.560354,5.0293426 c 0.0617,-0.018886 0.125096,-0.029724 0.188286,-0.031692 z m -1.743047,3.4450806 a 3.5612244,3.5612244 0 0 0 -2.5185625,1.0439638 3.5612244,3.5612244 0 0 0 0,5.0352608 3.5612244,3.5612244 0 0 0 5.0352615,0 3.5612244,3.5612244 0 0 0 0,-5.0352608 3.5612244,3.5612244 0 0 0 -2.516699,-1.0439638 z M 4.0621474,14.708379 c 0.1020541,-0.0074 0.2016908,0.02458 0.2740402,0.09694 l 4.8488385,4.848839 c 0.1447008,0.144697 0.1265655,0.39728 -0.041014,0.564859 L 8.3125694,21.05046 C 8.1449913,21.218024 7.8942718,21.234305 7.749575,21.08961 L 2.900736,16.240769 C 2.7560353,16.096073 2.7723069,15.845353 2.9398937,15.677776 l 0.8314428,-0.831444 c 0.083795,-0.0838 0.1887655,-0.130473 0.2908197,-0.137951 z M 2.76092,17.249311 c 0.1018217,-0.0072 0.1998282,0.02459 0.2721766,0.09694 l 3.6109969,3.611 c 0.144691,0.144696 0.1265646,0.395415 -0.041014,0.562993 l -0.8314427,0.82958 c -0.1675771,0.167574 -0.4201622,0.187574 -0.564859,0.04288 L 1.597646,18.78357 C 1.4529472,18.638873 1.4710804,18.386289 1.6386595,18.218711 l 0.8314427,-0.831447 c 0.083785,-0.08378 0.1889971,-0.130709 0.2908178,-0.137953 z" /></svg>

<?xml version="1.0" encoding="UTF-8"?>
<svg id="svg1" version="1.1" viewBox="0 0 24 24" xml:space="preserve" xmlns="http://www.w3.org/2000/svg"><path id="rect14" d="m18.519 1.5116c0.10206-0.00747 0.20169 0.022726 0.27404 0.095075l3.6091 3.6091c0.1447 0.1447 0.12656 0.39728-0.04101 0.56486l-0.83144 0.83144c-0.16758 0.16758-0.4183 0.18571-0.563 0.041012l-3.611-3.611c-0.1447-0.1447-0.12657-0.39542 0.041013-0.56299l0.83144-0.82958c0.08379-0.083789 0.18876-0.13047 0.29082-0.13795zm-2.5409 1.3012c0.10182-0.00725 0.19983 0.024592 0.27218 0.09694l4.8488 4.8488c0.1447 0.1447 0.12842 0.39542-0.03915 0.56299l-0.83144 0.83144c-0.16758 0.16758-0.42016 0.18571-0.56486 0.041013l-4.8488-4.8488c-0.1447-0.1447-0.12656-0.39728 0.041014-0.56486l0.83144-0.83144c0.08378-0.083789 0.189-0.12884 0.29082-0.13609zm-2.2296 2.1849c0.18957-0.0059 0.37845 0.063394 0.52198 0.20693l4.5338 4.5338a0.70583 0.70583 0 0 1 0.17524 0.71027l-1.743 6.2134c-0.02014 0.14102-0.08998 0.27267-0.19574 0.37844s-0.23742 0.1756-0.37844 0.19574l-6.2134 1.743c-0.24678 0.07555-0.51889 0.01614-0.71027-0.17524l-4.5338-4.5338c-0.19138-0.19138-0.25078-0.46349-0.17524-0.71027l1.743-6.2134c0.020144-0.14102 0.08998-0.27267 0.19574-0.37844 0.10576-0.10576 0.23742-0.1756 0.37844-0.19574l6.2134-1.743c0.0617-0.018886 0.1251-0.029724 0.18829-0.031692zm-1.743 3.4451a3.5612 3.5612 0 0 0-2.5186 1.044 3.5612 3.5612 0 0 0 0 5.0353 3.5612 3.5612 0 0 0 5.0353 0 3.5612 3.5612 0 0 0 0-5.0353 3.5612 3.5612 0 0 0-2.5167-1.044zm-7.9434 6.2656c0.10205-0.0074 0.20169 0.02458 0.27404 0.09694l4.8488 4.8488c0.1447 0.1447 0.12657 0.39728-0.041014 0.56486l-0.83144 0.83144c-0.16758 0.16756-0.4183 0.18384-0.56299 0.03915l-4.8488-4.8488c-0.1447-0.1447-0.12843-0.39542 0.039158-0.56299l0.83144-0.83144c0.083795-0.0838 0.18877-0.13047 0.29082-0.13795zm-1.3012 2.5409c0.10182-0.0072 0.19983 0.02459 0.27218 0.09694l3.611 3.611c0.14469 0.1447 0.12656 0.39542-0.041014 0.56299l-0.83144 0.82958c-0.16758 0.16757-0.42016 0.18757-0.56486 0.04288l-3.6091-3.6091c-0.1447-0.1447-0.12657-0.39728 0.041014-0.56486l0.83144-0.83145c0.083785-0.08378 0.189-0.13071 0.29082-0.13795z" stroke-width=".99999" style="paint-order:stroke markers fill"/></svg>
